!!!!SEGMENT: pl-sa--102-a-iii-2--001_anonim--missa-de-nativitate-kyrie.krn
!!!cenid: 18xx:1272
!!!COM: Anonim
!!!COM-rismid: pe30004985
!!!CDT:
!!!CNT:
!!!OPR: Missa de Nativitate
!!!OTL: Kyrie
!!!OMV: 001
!!!PDT: 1814
!!!AGN: Sacred; Mass
!!!SMS-siglum: PL-SA
!!!SMS-shelfmark: 102/A III 2
!!!SMS-shelfwork: 001-001 M
!!!SMS-variant: Violino Primo PL-SA 102/A III 2:15-17; Violino 2do PL-SA 102/A III 2:19-21
!!!SMS-altvar: Violino Primo PL-SA 102/A III 2:11-14; Violino 2do PL-SA 102/A III 2:23-26
!!!NIFC-rismid: 1001035508
!!!URL-scan: http://bc.bdsandomierz.pl/dlibra/publication/1458/edition/1426/content
!!!ONB-nifc: UWAGA: części Mszy: 1. Kyrie, 2. Et in terra, 3. Patrem, 4. Sanctus, 5. Benedictus, 6. Agnus Dei
!!!key:
**kern	**kern	**dynam	**kern	**dynam	**kern	**text	**kern	**text
*part5	*part4	*part4	*part3	*part3	*part2	*part2	*part1	*part1
*group	*group2	*group2	*group2	*group2	*group1	*group1	*group1	*group1
*staff5	*staff4	*	*staff3	*	*staff2	*staff2	*staff1	*staff1
*Iempty	*Ivioln	*	*Ivioln	*	*Ivox	*	*Ivox	*
*I"Baſso.	*I"Violino 2do.	*	*I"Violino Primo	*	*I"Canto 2do.	*	*I"Canto.	*
*I'bc	*I'vl 2	*	*I'vl 1	*	*I'S 2	*	*I'S 1	*
*clefF4	*clefG2	*	*clefG2	*	*clefC1	*	*clefC1	*
*k[f#]	*k[f#]	*	*k[f#]	*	*k[f#]	*	*k[f#]	*
*G:	*G:	*	*G:	*	*G:	*	*G:	*
*M4/4	*M4/4	*	*M4/4	*	*M4/4	*	*M4/4	*
*met(c)	*met(c)	*	*met(c)	*	*met(c)	*	*met(c)	*
=1	=1	=1	=1	=1	=1	=1	=1	=1
*2\right	*2\right	*	*2\right	*	*2\right	*	*2\right	*
*	*tremolo	*	*tremolo	*	*	*	*	*
!LO:TX:b:i:t=Kyrie. pedal&colon;	!	!	!	!	!	!	!	!
!LO:TX:t=P:problem:w źródle oznaczenie metryczne C z kropką; nie zakodowano, ponieważ się nie wyświetlało	!LO:TX:t=P:problem:w źródle oznaczenie metryczne C z kropką; nie zakodowano, ponieważ się nie wyświetlało	!	!	!	!	!	!	!
!LO:TX:a:i:t=adagio	!LO:TX:a:i:t=Tarde.	!	!	!	!	!	!	!
!	!LO:TX:b:i:t=Kyrie	!	!LO:TX:t=P:problem:w źródle oznaczenie metryczne C z kropką; nie zakodowano, ponieważ się nie wyświetlało	!	!	!	!	!
!	!	!	!	!	!LO:TX:a:t=2.	!	!	!
!	!	!	!LO:TX:b:i:t=Kyrie	!	!LO:TX:t=P:problem:w źródle oznaczenie metryczne C z kropką; nie zakodowano, ponieważ się nie wyświetlało	!	!LO:TX:t=P:problem:w źródle oznaczenie metryczne C z kropką; nie zakodowano, ponieważ się nie wyświetlało	!
!	!	!	!LO:TX:a:i:t=Tarde	!	!LO:TX:a:i:t=Adagio	!	!LO:TX:a:i:t=Adagio	!
1GG	8g/L	.	8b\L	.	0r	.	4dd\	Ky-
.	8g/	.	8b\	.	.	.	.	.
.	8g/	.	8b\	.	.	.	8dd\	-ri-
.	8g/J	.	8b\J	.	.	.	16b\	-e-
.	.	.	.	.	.	.	16g\	.
*	*Xtremolo	*	*Xtremolo	*	*	*	*	*
.	8f#/L	.	8a/L	.	.	.	8a/	-ley-
.	8d/J	.	8f#/J	.	.	.	8f#/	.
.	(<16g/LL	.	16g/LL	.	.	.	4g/	-son
.	16f#/	.	16a/	.	.	.	.	.
.	16g/	.	16b/	.	.	.	.	.
.	16a/JJ)	.	16cc/JJ	.	.	.	.	.
=2	=2	=2	=2	=2	=2	=2	=2	=2
*	*tremolo	*	*tremolo	*	*	*	*	*
1GG	8g/L	.	8b\L	.	.	.	8g\	Ky-
.	8g/	.	8b\	.	.	.	8b\	-ri-
.	8g/	.	8b\	.	.	.	8dd\	-e
.	8g/J	.	8b\J	.	.	.	16b\	.
.	.	.	.	.	.	.	16g\	.
*	*Xtremolo	*	*Xtremolo	*	*	*	*	*
.	8f#/L	.	8a/L	.	.	.	8a\	-e-
.	8d/	.	8f#/	.	.	.	8f#\	ley-
.	8g/	.	8g/	.	.	.	4g/	-son
.	8G/J	.	8G/J	.	.	.	.	.
=3	=3	=3	=3	=3	=3	=3	=3	=3
1GG	1d [>1B	.	1g 1G	.	8g\	Ky-	8b\L	Ky-
.	.	.	.	.	8a\	-ri-	8cc\J	.
.	.	.	.	.	8b\	-e-	8dd\L	-ri-
.	.	.	.	.	8cc\	.	8ee\J	-e
.	.	.	.	.	8b\	.	8dd\L	e-
.	.	.	.	.	8a\	.	8cc#X\J	.
.	.	.	.	.	8b\	ley-	8dd\L	-ley-
.	.	.	.	.	8g\	-son	8b\J	-son
!	!	!	!	!	!	!	!LO:LB:g=original	!
=4	=4	=4	=4	=4	=4	=4	=4	=4
2GG/	2B/]	.	2g 2G/	.	8b\	e-	8dd\L	e-
.	.	.	.	.	8a\	.	8ccn\J	.
.	.	.	.	.	8f#/L	-ley-	8a\L	.
.	.	.	.	.	8g/J	.	8b\J	.
2DD/	(>2G/	.	2d 2G/	.	4.d/	-son	4.g\	-ley-
.	.	.	.	.	8d/	.	8d/	-son
=5	=5	=5	=5	=5	=5	=5	=5	=5
1GG	[>1d 1B)	.	1g 1G	.	1g	e-	8dd\L	Ky-
.	.	.	.	.	.	.	8cc\J	.
.	.	.	.	.	.	.	8a\L	-ri-
.	.	.	.	.	.	.	8b\J	-e
.	.	.	.	.	.	.	8g/L	.
.	.	.	.	.	.	.	8d/J	e-
.	.	.	.	.	.	.	8g\L	-ley-
.	.	.	.	.	.	.	8b\J	-son
=6	=6	=6	=6	=6	=6	=6	=6	=6
1GG	2d] 2B/	.	2g 2G/	.	4g\	.	8dd\L	Ky-
.	.	.	.	.	.	.	8cc\J	.
.	.	.	.	.	4g\	-ley-	8a\L	-ri-
.	.	.	.	.	.	.	8b\J	-e
.	4d 4B/	.	4g 4G/	.	4g\	-son	4.g\	e-
.	4r	.	4r	.	4r	.	.	.
.	.	.	.	.	.	.	16a\LL	.
.	.	.	.	.	.	.	16b\JJ	.
=7	=7	=7	=7	=7	=7	=7	=7	=7
8GG/	8d 8B/	.	8g 8G/	.	4b\	e-	8g/L	.
8r	8r	.	8r	.	.	.	16a/L	.
.	.	.	.	.	.	.	16b/JJ	.
8GG/	8d 8B/	.	8g 8G/	.	4b\	-ley-	8g/L	-ley-
8r	8r	.	8r	.	.	.	16a/L	.
.	.	.	.	.	.	.	16b/JJ	.
!LO:TX:a:t=7.	!	!	!	!	!	!	!	!
2GG/	2d 2B;/	.	2g 2G;/	.	4b\	-son	4g/	-son
.	.	.	.	.	4r;	.	4r;	.
!	!	!	!	!	!LO:TX:a:t=7.	!	!	!
!	!	!	!	!	!LO:LB:g=original	!	!	!
=8||	=8||	=8||	=8||	=8||	=8||	=8||	=8||	=8||
*M6/8	*M6/8	*	*M6/8	*	*M6/8	*	*M6/8	*
!	!	!	!	!	!	!	!LO:TX:a:t=7.	!
!LO:TX:b:i:t=Kyrie	!LO:TX:b:i:t=Kyrie=	!	!LO:TX:b:i:t=Kyrie=	!	!LO:TX:a:t=5	!	!LO:TX:b:t=5	!
!LO:TX:a:i:t=allo.	!LO:TX:a:i:t=Moder.	!	!LO:TX:a:i:t=Moderato	!	!LO:TX:a:i:t=allo	!	!LO:TX:a:i:t=allo.	!
!	!	!	!	!	!LO:N:vis=00	!	!LO:N:vis=00	!
8GG/L	8.b\L	.	8.dd\L	.	0.r	.	0.r	.
8GG/	.	.	.	.	.	.	.	.
.	16a\K	.	16cc\K	.	.	.	.	.
8GG/J	8b\J	.	8dd\J	.	.	.	.	.
*tremolo	*	*	*	*	*	*	*	*
8GG/L	8.g/L	.	8.b\L	.	.	.	.	.
8GG/	.	.	.	.	.	.	.	.
.	16a/K	.	16cc\K	.	.	.	.	.
8GG/J	8b/J	.	8dd\J	.	.	.	.	.
*Xtremolo	*	*	*	*	*	*	*	*
=9	=9	=9	=9	=9	=9	=9	=9	=9
8D\L	8.a/L	.	8.cc\L	.	.	.	.	.
8D\	.	.	.	.	.	.	.	.
.	16g/K	.	16b\K	.	.	.	.	.
8D\J	8a/J	.	8cc\J	.	.	.	.	.
*tremolo	*	*	*	*	*	*	*	*
8D\L	8.f#/L	.	8.a\L	.	.	.	.	.
8D\	.	.	.	.	.	.	.	.
.	16g/K	.	16b\K	.	.	.	.	.
8D\J	8a/J	.	8cc\J	.	.	.	.	.
*Xtremolo	*	*	*	*	*	*	*	*
!	!LO:LB:g=original	!	!LO:LB:g=original	!	!	!	!	!
=10	=10	=10	=10	=10	=10	=10	=10	=10
8GG/L	8.g/L	.	8.b\L	.	.	.	.	.
8GG/	.	.	.	.	.	.	.	.
.	16f#/K	.	16a\K	.	.	.	.	.
8GG/J	8g/J	.	8b\J	.	.	.	.	.
*tremolo	*	*	*	*	*	*	*	*
8D\L	4a/	.	4cc\	.	.	.	.	.
8D\	.	.	.	.	.	.	.	.
8D\J	8f#/	.	8a\	.	.	.	.	.
*Xtremolo	*	*	*	*	*	*	*	*
!LO:LB:g=original	!	!	!	!	!	!	!	!
=11	=11	=11	=11	=11	=11	=11	=11	=11
4G\	8g/L	.	8b/L	.	.	.	.	.
.	16g/L	.	16b/L	.	.	.	.	.
.	16f#/J	.	16a/J	.	.	.	.	.
8G\	8g/J	.	8b/J	.	.	.	.	.
8D\L	4a/	.	4cc\	.	.	.	.	.
8F#\	.	.	.	.	.	.	.	.
8A\J	8f#/	.	8a\	.	.	.	.	.
=12	=12	=12	=12	=12	=12	=12	=12	=12
!LO:TX:t=P:problem:mixed beam	!	!	!	!	!	!	!	!
8G\L	8g/L	.	8b\L	.	2.r	.	2.r	.
8GG/	8b/	.	8dd\	.	.	.	.	.
8GG/J	8a/J	.	8cc\J	.	.	.	.	.
4GG/	4g/	.	4b\	.	.	.	.	.
8r	8r	.	8r	.	.	.	.	.
=13	=13	=13	=13	=13	=13	=13	=13	=13
!LO:TX:t=P:problem:mixed beam	!	!	!	!	!	!	!	!
!	!	!LO:DY:b	!	!LO:DY:b:t=p.	!	!	!	!
8GG/L	8.b/L	pp	8.dd\L	p	8.b\L	Ky-	8.dd\L	Ky-
8G\	.	.	.	.	.	.	.	.
.	16a/K	.	16cc\K	.	16a\K	-ri-	16cc\K	-ri-
8G\J	8b/J	.	8dd\J	.	8b\J	-e	8dd\J	-e
!LO:TX:t=P:problem:mixed beam	!	!	!	!	!	!	!	!
!	!	!	!	!	!	!	!LO:LB:g=original	!
8GG/L	8g/L	.	8b\L	.	8.g\L	e-	8.b\L	e-
8G\	8a/	.	8cc\	.	.	.	.	.
.	.	.	.	.	16a\K	-ley-	16cc\K	-ley-
8G\J	8b/J	.	8dd\J	.	8b\J	-son	8dd\J	-son
=14	=14	=14	=14	=14	=14	=14	=14	=14
!LO:TX:t=P:problem:mixed beam	!	!	!	!	!	!	!	!
*	*	*	*	*	*	*ij	*	*
8DD/L	8.a/L	.	8.cc\L	.	8.a\L	Ky-	8.cc\L	Ky-
8D\	.	.	.	.	.	.	.	.
.	16g/K	.	16b\K	.	16g\K	-ri-	16b\K	-ri-
8D\J	8a/J	.	8cc\J	.	8a\J	-e	8cc\J	-e
*tremolo	*	*	*	*	*	*	*	*
8D\L	8f#/L	.	8a/L	.	8.f#\L	e-	8.a\L	e-
8D\	8g/	.	8b/	.	.	.	.	.
.	.	.	.	.	16g\K	-ley-	16b\K	-ley-
8D\J	8a/J	.	8cc/J	.	8a\J	-son	8cc\J	-son
*	*	*	*	*	*	*Xij	*	*
*Xtremolo	*	*	*	*	*	*	*	*
=15	=15	=15	=15	=15	=15	=15	=15	=15
!LO:TX:t=P:problem:mixed beam	!	!	!	!	!	!	!	!
8GG/L	8.g/L	.	8.b\L	.	8.g\L	Ky-	8.b\L	Ky-
8G\	.	.	.	.	.	.	.	.
.	16a/K	.	16cc\K	.	16a\K	-ri-	16cc\K	-ri-
8G\J	8b/J	.	8dd\J	.	8b\J	-e	8dd\J	-e
*tremolo	*	*	*	*	*	*	*	*
8G\L	8b/L	.	8dd\L	.	8.b\L	e-	8.dd\L	e-
8G\	8a/	.	8cc\	.	.	.	.	.
.	.	.	.	.	16a\K	.	16cc\K	.
8G\J	8g/J	.	8b\J	.	8g\J	.	8b\J	.
*Xtremolo	*	*	*	*	*	*	*	*
=16	=16	=16	=16	=16	=16	=16	=16	=16
8D\L	4f#/	.	4a/	.	4f#/	-ley-	4a\	-ley-
8D\	.	.	.	.	.	.	.	.
8D\J	8f#/	.	8a/	.	8f#/	.	8a\	.
8D\L	4f#/	.	4a/	.	4f#/	-son.	4a\	-son.
8F#\	.	.	.	.	.	.	.	.
8A\J	8r	.	8r	.	8r	.	8r	.
=17	=17	=17	=17	=17	=17	=17	=17	=17
4G\	8.g/L	.	8.b\L	.	8.g\L	Ky-	8.b\L	Ky-
.	16a/K	.	16cc\K	.	16a\K	-ri-	16cc\K	-ri-
8r	8b/J	.	8dd\J	.	8b\J	-e	8dd\J	-e
*	*	*	*	*	*	*ij	*	*ij
4G\	8.g/L	.	8.b\L	.	8.g\L	Ky-	8.b\L	Ky-
.	16a/K	.	16cc\K	.	16a\K	-ri-	16cc\K	-ri-
8r	8b/J	.	8dd\J	.	8b\J	-e	8dd\J	-e
*	*	*	*	*	*	*Xij	*	*Xij
!	!	!	!LO:LB:g=original	!	!	!	!	!
=18	=18	=18	=18	=18	=18	=18	=18	=18
8G\L	8b/L	.	8dd\L	.	8b\L	e-	8dd\L	e-
8G\	8a/	.	8cc\	.	8a\	.	8cc\	.
8G\J	8g/J	.	8b\J	.	8g\J	.	8b\J	.
*tremolo	*	*	*	*	*	*	*	*
!	!	!	!	!	!LO:LB:g=original	!	!	!
8D\L	4a/	.	4cc\	.	4a\	-ley-	4cc\	-ley-
8D\	.	.	.	.	.	.	.	.
8D\J	8f#/	.	8a\	.	8f#\	-son	8a\	-son
*Xtremolo	*	*	*	*	*	*	*	*
!	!LO:LB:g=original	!	!	!	!	!	!	!
=19	=19	=19	=19	=19	=19	=19	=19	=19
!LO:TX:t=P:problem:mixed beam	!	!	!	!	!	!	!	!
8GG/L	(<16g/LL	.	(>16b\LL	.	(<16g/LL	Ky-	(>16b\LL	Ky-
.	16f#/	.	16a\	.	16f#/	.	16a\	.
8G\J	16g/	.	16b\	.	16g/	-ri-	16b\	-ri-
.	16a/J)	.	16cc\J)	.	16a/J)	.	16cc\J)	.
8r	8b/J|	.	8dd\J|	.	8b/J|	-e	8dd\J|	-e
*	*	*	*	*	*	*ij	*	*ij
!LO:TX:t=P:problem:mixed beam	!	!	!	!	!	!	!	!
8GG/L	(<16g/LL	.	(>16b\LL	.	(16g/LL	Ky-	(>16b\LL	Ky-
.	16f#/	.	16a\	.	16f#/	.	16a\	.
8G\J	16g/	.	16b\	.	16g/	-ri-	16b\	-ri-
.	16a/J)	.	16cc\J)	.	16a/J)	.	16cc\J)	.
8r	8b/J|	.	8dd\J|	.	8b/J|	-e	8dd\J|	-e
*	*	*	*	*	*	*Xij	*	*Xij
!LO:LB:g=original	!	!	!	!	!	!	!	!
=20	=20	=20	=20	=20	=20	=20	=20	=20
*tremolo	*	*	*	*	*	*	*	*
8G\L	8b/L	.	8dd\L	.	8b\L	e-	8dd\L	e-
8G\	8a/	.	8cc\	.	8a\	.	8cc\	.
8G\J	8g/J	.	8b\J	.	8g\J	.	8b\J	.
!	!	!	!	!	!	!	!LO:LB:g=original	!
8D\L	4a/	.	4cc\	.	4a\	-ley-	4cc\	-ley-
8D\	.	.	.	.	.	.	.	.
8D\J	8f#/	.	8a\	.	8f#\	-son.	8a\	-son.
*Xtremolo	*	*	*	*	*	*	*	*
=21	=21	=21	=21	=21	=21	=21	=21	=21
4G\	4g/	.	4b\	.	4g\	Ky-	4b\	Ky-
8D\	(<16f#/LL	.	(>16a\LL	.	16f#/LL	-ri-	16a\LL	-ri-
.	16a/JJ)	.	16cc\JJ)	.	16a/JJ	.	16cc\JJ	.
4G\	4g/	.	4b\	.	4g\	-e	4b\	-e
8D\	(<16f#/LL	.	(>16a\LL	.	16f#/LL	e-	16a\LL	.
.	16a/JJ)	.	16cc\JJ)	.	16a/JJ	.	16cc\JJ	.
=22	=22	=22	=22	=22	=22	=22	=22	=22
8G\L	(<8g/L	.	(>8b\L	.	8g\	.	8b\L	.
8F#\	8a/)	.	8cc\)	.	8a\	.	8cc\	.
8D\J	8f#/J|	.	8a\J|	.	8f#\	.	8a\J	.
8G\L	(<8g/L	.	(>8b\L	.	8g\	-e-	8b\L	e-
8F#\	8a/)	.	8cc\)	.	8a\	-ley-	8cc\	-ley-
8D\J	8f#/J|	.	8a\J|	.	8f#\	-son	8a\J	-son
=23	=23	=23	=23	=23	=23	=23	=23	=23
4G\	4g/	.	4b\	.	4g/	e-	4b\	e-
8D\	(<16f#/LL	.	(>16a\LL	.	(<16f#/LL	.	16a\LL	.
.	16a/JJ)	.	16cc\JJ	.	16a/JJ)	.	16cc\JJ	.
4G\	4g/	.	4b\)	.	4g/	.	4b\	.
8D\	(<16f#/LL	.	(>16a\LL	.	(<16f#/LL	-ley-	16a\LL	-ley-
.	16a/JJ)	.	16cc\JJ)	.	16a/JJ)	.	16cc\JJ	.
!	!	!	!	!	!LO:LB:g=original	!	!	!
=24	=24	=24	=24	=24	=24	=24	=24	=24
!LO:N:vis=8	!	!	!	!	!LO:N:vis=8	!	!	!
4G\	(<8g/L	.	(>8b\L	.	4g\	-son	8b\	-son
.	8a/)	.	8cc\)	.	.	.	8r	.
8r	8e/J|	.	8cc#X\J|	.	8r	.	8r	.
4r	4f#/	.	4dd\	.	4r	.	4r	.
8r	8cc#X\	.	8ee\	.	8r	.	8r	.
=25	=25	=25	=25	=25	=25	=25	=25	=25
!	!	!	!	!	!LO:TX:a:t=8	!	!LO:TX:a:t=8	!
!	!	!	!	!	!LO:N:vis=00	!	!LO:N:vis=00	!
!	!	!	!	!LO:DY:b:t=for.	!	!	!	!
8D\L	8dd\L	.	8ff#\L	f	0.r	.	0.r	.
8d\	8ee\	.	8gg\	.	.	.	.	.
8D\J	8ff#\J	.	8aa\J	.	.	.	.	.
8D\L	4ff#\	.	4aa\	.	.	.	.	.
8d\	.	.	.	.	.	.	.	.
8D\J	8dd\	.	8ff#\	.	.	.	.	.
!	!	!	!LO:LB:g=original	!	!	!	!	!
=26	=26	=26	=26	=26	=26	=26	=26	=26
!LO:TX:t=P:problem:mixed beam	!	!	!	!	!	!	!	!
8AA/L	8ee\L|	.	8gg\L|	.	.	.	.	.
8A\	(>16ee\L	.	(>16gg\L	.	.	.	.	.
.	16dd\	.	16ff#\	.	.	.	.	.
8AA/J	16ee\	.	16gg\	.	.	.	.	.
.	16gg\JJ)	.	16bb\JJ)	.	.	.	.	.
!LO:TX:t=P:problem:mixed beam	!	!	!	!	!	!	!	!
8AA/L	4cc#X\	.	4ee\	.	.	.	.	.
8A\	.	.	.	.	.	.	.	.
8AA/J	8a\	.	8a/	.	.	.	.	.
!	!LO:LB:g=original	!	!	!	!	!	!	!
=27	=27	=27	=27	=27	=27	=27	=27	=27
8d\L	16dd\LL	.	16ff#\LL	.	.	.	.	.
.	(>16cc#X\	.	16ee\	.	.	.	.	.
8D/	16dd\	.	16ff#\	.	.	.	.	.
.	16ee\	.	16gg\	.	.	.	.	.
8d\J	16ff#\	.	16aa\	.	.	.	.	.
.	16gg\JJ)	.	16bb\JJ	.	.	.	.	.
8d\L	4ff#\	.	4aa\	.	.	.	.	.
8D/	.	.	.	.	.	.	.	.
8d\J	16ee\LL	.	16gg\LL	.	.	.	.	.
.	16dd\JJ	.	16ff#\JJ	.	.	.	.	.
=28	=28	=28	=28	=28	=28	=28	=28	=28
!LO:TX:t=P:problem:mixed beam	!	!	!	!	!	!	!	!
8A\L	8ee\L|	.	16gg\LL|	.	.	.	.	.
.	.	.	16gg\|	.	.	.	.	.
8AA/	(>16ee\L	.	(>16gg\	.	.	.	.	.
.	16dd\	.	16ff#\)	.	.	.	.	.
8A\J	16ee\	.	(>16gg\	.	.	.	.	.
.	16gg\JJ)	.	16bb\JJ)	.	.	.	.	.
!LO:LB:g=original	!	!	!	!	!	!	!	!
!LO:TX:t=P:problem:mixed beam	!	!	!	!	!	!	!	!
8A\L	4cc#X\	.	4ee\	.	.	.	.	.
8AA/	.	.	.	.	.	.	.	.
8A\J	16e/LL	.	16cc#X\LL	.	.	.	.	.
.	16c#X/JJ	.	16a\JJ	.	.	.	.	.
=29	=29	=29	=29	=29	=29	=29	=29	=29
!	!	!	!	!	!LO:N:vis=00	!	!LO:N:vis=00	!
4D\	4f#/	.	4dd\	.	0.r	.	0.r	.
8r	(<16g/LL	.	(>16ee\LL	.	.	.	.	.
.	16a/JJ)	.	16ff#\JJ)	.	.	.	.	.
4D\	4f#/	.	4dd\	.	.	.	.	.
8r	(<16g/LL	.	(>16ee\LL	.	.	.	.	.
.	16a/JJ)	.	16ff#\JJ)	.	.	.	.	.
=30	=30	=30	=30	=30	=30	=30	=30	=30
16D/LL	16d/LL	.	16dd\LL|	.	.	.	.	.
16C#X/	16c#X/	.	16cc#X\|	.	.	.	.	.
16BB/	16B/	.	16b\|	.	.	.	.	.
16AA/	16A/	.	16a\|	.	.	.	.	.
16BB/	16B/	.	16b\|	.	.	.	.	.
16C#X/JJ	16c#X/JJ	.	16cc#X\JJ|	.	.	.	.	.
4D\	4d/	.	4dd\	.	.	.	.	.
16E\LL	(<16e/LL	.	(>16ee\LL	.	.	.	.	.
16F#\JJ	16f#/JJ)	.	16ff#\JJ)	.	.	.	.	.
=31	=31	=31	=31	=31	=31	=31	=31	=31
16D\LL	16d/LL|	.	16dd\LL|	.	.	.	.	.
16E\	16e/|	.	16ee\|	.	.	.	.	.
16F#\	16f#/|	.	16ff#\|	.	.	.	.	.
16D\	16d/|	.	16dd\|	.	.	.	.	.
16C#X\	16c#X/|	.	16cc#X\|	.	.	.	.	.
!	!LO:TX:b:t=e	!	!	!	!	!	!	!
16E\JJ	16e/JJ|	.	16ee\JJ|	.	.	.	.	.
16D\LL	16d/LL|	.	16dd\LL|	.	.	.	.	.
16E\	16e/|	.	16ee\|	.	.	.	.	.
16F#\	16f#/|	.	16ff#\|	.	.	.	.	.
16D\	16d/|	.	16dd\|	.	.	.	.	.
16C#X\	16c#X/|	.	16cc#X\|	.	.	.	.	.
!	!LO:TX:b:t=e	!	!	!	!	!	!	!
16E\JJ	16e/JJ|	.	16ee\JJ|	.	.	.	.	.
=32	=32	=32	=32	=32	=32	=32	=32	=32
8D\L	8f#/L	.	8dd\L|	.	.	.	.	.
8F#\	8f#/	.	8dd\|	.	.	.	.	.
8A\J	8f#/J	.	8dd\J|	.	.	.	.	.
!	!	!	!LO:LB:g=original	!	!	!	!	!
8d\L	4f#/	.	4dd\|	.	.	.	.	.
8A\	.	.	.	.	.	.	.	.
8F#\J	8r	.	8r	.	.	.	.	.
=33	=33	=33	=33	=33	=33	=33	=33	=33
4D\	8.b\L	.	8.dd\L	.	8.b\L	Chri-	8.dd\L	Chri-
.	16cc\K	.	16ee\K	.	16cc\K	.	16ee\K	.
8r	8dd\J	.	8ffn\J	.	8dd\J	-ste	8ffn\J	-ste
!	!LO:LB:g=original	!	!	!	!	!	!	!
4r	16dd\LL|	.	16ff\LL|	.	4r	.	4r	.
.	16ccn\|	.	16ee\|	.	.	.	.	.
.	16b\|	.	16dd\|	.	.	.	.	.
.	16a\|	.	16cc\|	.	.	.	.	.
8r	16g#X\|	.	16b\|	.	8r	.	8r	.
.	16e\JJ|	.	16a\JJ|	.	.	.	.	.
=34	=34	=34	=34	=34	=34	=34	=34	=34
8E\L	8e/L	.	8g#X/L|	.	8e/	e-	8g#X\	e-
8E\	8e/	.	8e/|	.	8e/	.	8e/	.
8E\J	8e/J	.	8g#/J|	.	8e/	.	8g#\	.
16A\LL	4a/	.	4a/	.	4a\	-ley-	4a\	-ley-
16B\	.	.	.	.	.	.	.	.
16cn\	.	.	.	.	.	.	.	.
16B\J	.	.	.	.	.	.	.	.
8A\J	8a/	.	8a/	.	8a\	-son.	8a\	-son
!LO:LB:g=original	!	!	!	!	!	!	!	!
=35	=35	=35	=35	=35	=35	=35	=35	=35
4F#\	8.a\L	.	8.ccn\L	.	8.a\L	chri-	8.cc\L	chri-
.	16b\K	.	16dd\K	.	16b\K	.	16dd\K	.
8r	8cc\J	.	8ee\J	.	8cc\J	-ste	8ee\J	-ste
!	!	!	!	!	!	!	!LO:LB:g=original	!
4r	16cc\LL|	.	16ee\LL|	.	8r	.	4r	.
.	16b\|	.	16dd\|	.	.	.	.	.
.	16a\|	.	16cc\|	.	4r	.	.	.
.	16g\|	.	16b\|	.	.	.	.	.
8r	16f#\|	.	16a\|	.	.	.	8r	.
.	16e\JJ|	.	16g\JJ|	.	.	.	.	.
=36	=36	=36	=36	=36	=36	=36	=36	=36
8D\L	8d/L	.	8f#/L	.	8d/	e-	8f#/	e-
8D\	8d/	.	8d/	.	8d/	.	8d/	.
8D\J	8d/J	.	8f#/J	.	8d/	.	8f#/	.
16G\LL	4B/	.	4g/	.	4g\	-ley-	4g/	-ley-
16A\	.	.	.	.	.	.	.	.
16B\	.	.	.	.	.	.	.	.
16A\J	.	.	.	.	.	.	.	.
8G\J	8B/	.	8g/	.	8g\	-son.	8g/	-son.
=37	=37	=37	=37	=37	=37	=37	=37	=37
4D\	8r	.	8r	.	4f#/	Ky-	4a\	Ky-
!	!	!	!	!LO:DY:b:t=p&colon;	!	!	!	!
.	8f#/L	.	8a/L|	p	.	.	.	.
8r	8f#/J	.	8a/J|	.	8f#/	-ri-	8a\	-ri-
4D\	8r	.	8r	.	4g/	-e	4b\	-e
.	8g/L	.	8b/L|	.	.	.	.	.
8r	8g/J	.	8b/J|	.	8g/	.	8b\	.
=38	=38	=38	=38	=38	=38	=38	=38	=38
8F#\L	8r	.	8r	.	4a\	e-	4cc\	e-
8D\	8a/L	.	8cc\L	.	.	.	.	.
8F#\J	8a/J	.	8cc\J	.	8a\	.	8cc\	.
8G\L	4g/	.	4b 4d/	.	4g\	-ley-	4b\	-ley-
8D\	.	.	.	.	.	.	.	.
8G\J	8b/	.	8dd 8d/	.	8b\	-son	8dd\	-son
!	!	!	!	!	!LO:LB:g=original	!	!	!
=39	=39	=39	=39	=39	=39	=39	=39	=39
*	*	*	*	*	*	*	*	*ij
8F#\L	8r	.	8r	.	4a\	e-	4cc\	e-
8D\	8a/L	.	8cc\L	.	.	.	.	.
8F#\J	8a/J	.	8cc\J	.	8a\	.	8cc\	.
8G\L	4g/	.	4b 4d/	.	4g\	-ley-	4b\	-ley-
8D\	.	.	.	.	.	.	.	.
8G\J	8b/	.	8dd 8d/	.	8b\	-son	8dd\	-son
*	*	*	*	*	*	*	*	*Xij
=40	=40	=40	=40	=40	=40	=40	=40	=40
4GG/	4b 4d/	.	4dd 4d/	.	(>16b\LL	Ky-	(>16dd\LL	Ky-
.	.	.	.	.	16cc\	.	16ee\	.
.	.	.	.	.	16b\	-ri-	16dd\	-ri-
.	.	.	.	.	16a\J)	.	16cc\J)	.
8r	8b 8d/	.	8dd 8d/	.	8g\J|	-e	8b\J|	-e
*	*	*	*	*	*	*ij	*	*ij
!	!	!	!LO:LB:g=original	!	!	!	!	!
4GG/	4b 4d/	.	4dd 4d/	.	(>16b\LL	Ky-	(>16dd\LL	Ky-
.	.	.	.	.	16cc\	.	16ee\	.
.	.	.	.	.	16b\	-ri-	16dd\	-ri-
.	.	.	.	.	16a\J)	.	16cc\J)	.
8r	8b 8d/	.	8dd 8d/	.	8g\J|	-e	8b\J|	-e
*	*	*	*	*	*	*Xij	*	*Xij
=41	=41	=41	=41	=41	=41	=41	=41	=41
!	!LO:N:vis=4.	!	!	!	!	!	!	!
8D\L	4f#/	.	4cc 4d/	.	4a\	e-	4cc\	e-
8D\	.	.	.	.	.	.	.	.
8D\J	8d/	.	8a 8d/	.	8f#\	.	8a\	.
4G\	4g/	.	4b 4d/	.	4g\	-ley-	4b\	-ley-
8GG/	8b/	.	8dd 8d/	.	8b\	-son	8dd\	-son
!	!LO:LB:g=original	!	!	!	!	!	!	!
=42	=42	=42	=42	=42	=42	=42	=42	=42
!	!	!	!	!	!LO:TX:t=P:problem:w źródle takty 42-43 zapisane jako repetycja taktów 40-41	!	!LO:TX:t=P:problem:w źródle takty 42-43 zapisane jako repetycja taktów 40-41	!
4GG/	4b 4d/	.	4dd 4d/	.	(>16b\LL	Ky-	(>16dd\LL	Ky-
.	.	.	.	.	16cc\	.	16ee\	.
.	.	.	.	.	16b\	-ri-	16dd\	-ri-
.	.	.	.	.	16a\J)	.	16cc\J)	.
8r	8b 8d/	.	8dd 8d/	.	8g\J|	-e	8b\J|	-e
*	*	*	*	*	*	*ij	*	*ij
4GG/	4b 4d/	.	4dd 4d/	.	(>16b\LL	Ky-	(>16dd\LL	Ky-
.	.	.	.	.	16cc\	.	16ee\	.
.	.	.	.	.	16b\	-ri-	16dd\	-ri-
.	.	.	.	.	16a\J)	.	16cc\J)	.
8r	8b 8d/	.	8dd 8d/	.	8g\J|	-e	8b\J|	-e
*	*	*	*	*	*	*Xij	*	*Xij
!LO:LB:g=original	!	!	!	!	!	!	!	!
=43	=43	=43	=43	=43	=43	=43	=43	=43
8D\L	4a/	.	4cc 4d/	.	4a\	e-	4cc\	e-
8D\	.	.	.	.	.	.	.	.
8D\J	8f#/	.	8a 8d/	.	8f#\	.	8a\	.
4G\	4g/	.	4b 4d/	.	4g\	-ley-	4b\	-ley-
8GG/	8b/	.	8dd 8d/	.	8b\	-son	8dd\	-son
!	!	!	!	!	!	!	!LO:LB:g=original	!
=44	=44	=44	=44	=44	=44	=44	=44	=44
4D\	4a/	.	4cc 4d/	.	4a\	e-	4cc\	e-
8D\	8f#/	.	8a 8d/	.	8f#\	-ley-	8a\	-ley-
4GG/	4g 4G/	.	4b 4d/	.	4g\	-son	4b\	-son
!LO:TX:a:t=37.	!	!	!	!	!	!	!	!
8r	8r	.	8r	.	8r	.	8r	.
!LO:TX:a:t=C.	!	!	!	!	!	!	!LO:TX:a:t=37.	!
==	==	==	==	==	==	==	==	==
*-	*-	*-	*-	*-	*-	*-	*-	*-
!!!system-decoration: [g1][g2]s5
!!!RDF**kern: > = above
!!!RDF**kern: < = below
!!!EED: Antoni Szymański
!!!EST: 2021-01-08
!!!AIN: 1 empty 2 violn 2 vox
!!!ENC: Andrzej Kubiczek
!!!END: 2020-12-06
!!!RDF**kern: | = vertical stroke
